X: 2135
T: Üç Kardeştik
C: Celal Güzelses
O: Turkey
F: http://compmusic.upf.edu/node/140
N: muhayyer--turku--sofyan--uc_kardestik--diyarbakir
N: makam= muhayyer
N: form= turku
N: usul= sofyan = 4/4
M: 4/4
L: 1/16
K: C _2/4B ^3/4f  
Q: 1/4=93
%%MIDI tuningsystem comma53
a4 f2 g2  | a4 a4  | a4 a4  | a4 a4  | a6 ba  | \
w:  *  Üç  kar  |  deş tik   |  get tik   |  ge yik   |  a  | 
c'2 c'6  | c'6 d'b  | b6 c'a  | a6 bg  | 
w:  vı na   |   |   |   | 
g6 af  | f6 ge  | e8  | ag =fe de d2  | d8  | \
w:   |   |   |   |  oy_  | 
d4 cB cA  | A8  | 
w:  *  oy_  |  oy   | 
zA Bc de fg  | a4 f2 g2  | a4 a4  | a4 a4  | \
w:  SAZ  |  *  Üç  kar  |  deş tik   |  get tik   | 
a4 a4  | a6 ba  | c'2 c'6  | 
w:  ge yik   |  a  |  vı na   | 
c'6 d'b  | b6 c'a  | a6 bg  | g6 af  | f6 ge  | e8  | \
w:   |   |   |   |   |   | 
ag =fe de d2  | 
w:   | 
d8  | d4 de fg  | a4 f2 g2  | a4 a4  | a3/2b/ g2 g3/2a/ f2  | \
w:  oy    |  *  SAZ  |  *  Ge yik   |  çek ti   |  bi *  *  zi   | 
fg e2 e2 d2  | 
w:  ken *  *  di   | 
d3c e4  | e2 d6  | ed c6  | dc B4 z2  | c2 d6  | \
w:  da  |  ğı na    |  a *  man_  |  a *  man   |  da  | 
ed c6  | dc B4 cB  | 
w:  ğı *  na    |  ha *  lim   | 
c2 cA A4  | G2 cB cB cB  | d2 Bc d3B  | A8  | \
w:  ya man   |  da  |  ğı  |  na    | 
AB AG AB cd  | 
w:  SAZ  | 
e4 c2 d2  | e4 e4  | eg2e e2 e2  | e2 d2 d2 {e}c2  | \
w:  *  Ge yik   |  çek ti   |  bi *  *  zi   |  ken *  di   | 
d2 {g}e6  | e2 {=f}d2 ed3  | ed c6  | 
w:  da  |  ğı *  na    |  a *  man_  | 
dc Bc BA B2  | c2 d6  | ed c6  | dc B6  | Ac cA A4  | \
w:  a *  man   |  da  |  ğı *  na    |  ha *  lim   |  ya *  man   | 
Gc2B c2 B2  | 
w:  da  | 
cd Bc B2 A2  | A8  | ag fe de fg  | a4 f2 g2  | \
w:  ğı  |  na    |  SAZ  |  *  Üç  kar  | 
a4 a4  | a4 a4  | 
w:  deş tik   |  get tik   | 
a4 a4  | a6 ba  | c'2 c'6  | c'6 d'b  | b6 c'a  | \
w:  ge yik   |  a  |  vı na   |   |   | 
a6 bg  | g6 af  | f6 ge  | 
w:   |   |   | 
e8  | ag =fe de d2  | d8  | d4 cB cA  | A8  | \
w:   |   |  oy_  |  *  oy_  |  oy   | 
zA Bc de fg  | 
w:  SAZ  | 
a4 f2 g2  | a4 a4  | a4 a4  | a4 a4  | a6 ba  | \
w:  *  Üç  kar  |  deş tik   |  get tik   |  ge yik   |  a  | 
c'2 c'6  | c'6 d'b  | b6 c'a  | a6 bg  | 
w:  vı na   |   |   |   | 
g6 af  | f6 ge  | e8  | ag =fe de d2  | d8  | \
w:   |   |   |   |  oy    | 
d4 de fg  | a4 f2 g2  | 
w:  *  SAZ  |  *  Ge yik   | 
a4 a4  | a3/2b/ g2 g3/2a/ f2  | fg e2 e2 d2  | \
w:  çek ti   |  bi *  *  zi   |  ken *  *  di   | 
d3c e4  | e2 d6  | ed c6  | 
w:  da  |  ğı na    |  a *  man_  | 
dc B4 z2  | c2 d6  | ed c6  | dc B4 cB  | c2 cA A4  | \
w:  a *  man   |  da  |  ğı *  na    |  ha *  lim   |  ya man   | 
G2 cB cB cB  | 
w:  da  | 
d2 Bc d3B  | A8  | AB AG AB cd  | e4 c2 d2  | \
w:  ğı  |  na    |  SAZ  |  *  Ge yik   | 
e4 e4  | eg2e e2 e2  | 
w:  çek ti   |  bi *  *  zi   | 
e2 d2 d2 {e}c2  | d2 {g}e6  | e2 {=f}d2 ed3  | \
w:  ken *  di   |  da  |  ğı *  na    | 
ed c6  | dc Bc BA B2  | c2 d6  | 
w:  a *  man_  |  a *  man   |  da  | 
ed c6  | dc B6  | Ac cA A4  | Gc2B c2 B2  | \
w:  ğı *  na    |  ha *  lim   |  ya *  man   |  da  | 
cd Bc B2 A2  | 
w:  ğı  | 
A8  | |


